Pods/ProtonCore-UIFoundations/libraries/UIFoundations/Sources/Assets.xcassets/Images/IconSet/ic-arrows-rotate.imageset/ic-arrows-rotate.svg

<svg width="24" height="24" viewBox="0 0 24 24" fill="none" xmlns="http://www.w3.org/2000/svg">
<path d="M16.9744 6.38163C14.0277 3.77149 9.51848 3.87617 6.69712 6.69569C5.29257 8.09934 4.56158 9.91932 4.50329 11.7588C4.49018 12.1727 4.14382 12.4976 3.72968 12.4845C3.31554 12.4714 2.99044 12.1252 3.00356 11.7114C3.07343 9.50594 3.95124 7.31916 5.63612 5.63538C9.04945 2.22427 14.5216 2.12454 18.0553 5.33621V3.83244C18.0553 3.41822 18.3911 3.08244 18.8053 3.08244C19.2195 3.08244 19.5553 3.41822 19.5553 3.83244V6.83163C19.5553 7.41153 19.0852 7.88163 18.5053 7.88163H15.5039C15.0897 7.88163 14.7539 7.54585 14.7539 7.13163C14.7539 6.71742 15.0897 6.38163 15.5039 6.38163H16.9744Z" fill="#0C0C14"/>
<path d="M21.0058 11.9078C21.0017 11.4938 20.6625 11.1614 20.2481 11.1655C19.8338 11.1697 19.5013 11.5087 19.5054 11.9227C19.5247 13.8678 18.7924 15.8165 17.3081 17.2998C14.4867 20.1194 9.97734 20.224 7.03065 17.6137H8.30177C8.71598 17.6137 9.05177 17.2779 9.05177 16.8637C9.05177 16.4495 8.71598 16.1137 8.30177 16.1137H5.30042C4.72052 16.1137 4.25042 16.5838 4.25042 17.1637L4.25042 20.1629C4.25042 20.5771 4.58621 20.9129 5.00042 20.9129C5.41463 20.9129 5.75042 20.5771 5.75042 20.1629L5.75042 18.4724C9.27472 21.8735 14.8909 21.8361 18.3691 18.3601C20.15 16.5804 21.029 14.2392 21.0058 11.9078Z" fill="#0C0C14"/>
</svg>

<svg xmlns="http://www.w3.org/2000/svg" width="24" height="24" viewBox="0 0 24 24">
  <g class="ic-arrows-rotate">
    <g class="Icon">
      <path d="M16.975 6.382a7.507 7.507 0 0 0-10.277.314 7.467 7.467 0 0 0-2.194 5.063.75.75 0 0 1-1.5-.048 8.966 8.966 0 0 1 2.633-6.076 9.008 9.008 0 0 1 12.419-.299V3.832a.75.75 0 0 1 1.5 0v3c0 .58-.47 1.05-1.05 1.05h-3.001a.75.75 0 1 1 0-1.5h1.47Z"/>
      <path d="M21.006 11.908a.75.75 0 0 0-1.5.015A7.47 7.47 0 0 1 17.31 17.3a7.507 7.507 0 0 1-10.278.314h1.272a.75.75 0 0 0 0-1.5H5.3c-.58 0-1.05.47-1.05 1.05v2.999a.75.75 0 0 0 1.5 0v-1.69a9.008 9.008 0 0 0 12.619-.113 8.97 8.97 0 0 0 2.636-6.452Z"/>
    </g>
  </g>
</svg>
